X:1
T: The Beauties of Ireland
C:
R:Jig
Q:180
K:D
M:6/8
L:1/16
F4D2 D2F2D2|D2F2D2 D2F2D2|E4A,2 A,2C2A,2|A,2C2A,2 A,2C2A,2|F4D2 D2F2D2|D2F2D2 D2F2D2|B2c2d2 e2d2c2|d4B2 A4G2|
F4D2 D2F2D2|D2F2D2 D2F2D2|E4A,2 A,2C2A,2|A,2C2A,2 A,2C2A,2|F4D2 D2F2D2|D2F2D2 D2F2D2|B2c2d2 e2d2c2|d6 d4A2|
f4d2 d2e2f2|g2a2g2 f2g2f2|e2c2A2 A2c2A2|e2c2A2 A2c2A2|f4d2 d2e2f2|g2b2g2 f2a2f2|e2c2A2 A2B2c2|d4B2 A4G2|
f4d2 d2e2f2|g2a2g2 f2g2f2|e2c2A2 A2c2A2|e2c2A2 A2c2A2|f4d2 d2e2f2|g2b2g2 f2a2f2|e2c2A2 A2B2c2|d6 d6||
